X: 13653
T: Follow Me Down To Carlow
R: hornpipe
M: 4/4
K: Eminor
|:(3BcB EF GA B2|(3ABA DE FG A2|(3BcB EF GA B^c|dB AF E2 E2:|
|:(3efe df ed B^c|de dB AF D2|(3efe df ed B^c|dB AF E2 E2:|

